dist/assets/img/pay/paypal.svg

<svg width="73" height="73" viewBox="0 0 73 73" fill="none" xmlns="http://www.w3.org/2000/svg">
<path fill-rule="evenodd" clip-rule="evenodd" d="M31.0888 17.1312H55.3865C68.2499 17.1312 73.3953 22.6808 72.5377 30.8845C71.3943 44.3965 61.6753 51.8763 48.8118 51.8763H42.2372C40.522 51.8763 39.3786 52.8414 38.8069 55.4956L35.9484 70.9378C35.6625 71.903 35.0908 72.6268 34.2332 72.6268H19.0829C17.6537 72.6268 17.0819 71.6617 17.6537 69.7314L26.801 20.0266C27.0869 18.0964 28.5161 17.1312 31.0888 17.1312Z" fill="#1F9CD8"/>
<path fill-rule="evenodd" clip-rule="evenodd" d="M15.9364 0H40.234C47.0946 0 55.0985 0.241285 60.5297 4.10185C64.2458 6.75599 65.961 11.0991 65.6751 15.6835C64.2458 31.3671 53.0975 40.0534 38.2331 40.0534H26.2272C24.2262 40.0534 22.7969 41.2598 22.2252 44.1552L18.7949 62.0103C18.5091 63.2167 17.9374 63.9406 16.794 63.9406H1.92952C0.214391 63.9406 -0.357318 62.9755 0.214391 60.5626L11.0769 3.37799C11.3627 1.20643 12.792 0 15.9364 0Z" fill="#233E81"/>
<path fill-rule="evenodd" clip-rule="evenodd" d="M22.5088 42.4663L26.7966 19.7854C27.0825 17.8552 28.5117 16.89 31.0844 16.89H55.3821C59.384 16.89 62.5284 17.3726 65.1011 18.3377C62.5284 32.3323 51.9518 40.0534 37.9449 40.0534H25.939C24.5098 40.0534 23.3664 40.7773 22.5088 42.4663Z" fill="#27326E"/>
</svg>

<svg width="73" height="73" fill="none" xmlns="http://www.w3.org/2000/svg"><path fill-rule="evenodd" clip-rule="evenodd" d="M31.089 17.131h24.297c12.864 0 18.01 5.55 17.152 13.753-1.144 13.513-10.863 20.992-23.726 20.992h-6.575c-1.715 0-2.858.965-3.43 3.62l-2.859 15.442c-.285.965-.857 1.689-1.715 1.689h-15.15c-1.43 0-2.001-.965-1.43-2.896l9.148-49.704c.286-1.93 1.715-2.896 4.288-2.896z" fill="#1F9CD8"/><path fill-rule="evenodd" clip-rule="evenodd" d="M15.936 0h24.298c6.86 0 14.864.241 20.296 4.102 3.716 2.654 5.431 6.997 5.145 11.581-1.43 15.684-12.578 24.37-27.442 24.37H26.227c-2 0-3.43 1.207-4.002 4.102l-3.43 17.855c-.286 1.207-.858 1.93-2.001 1.93H1.93c-1.716 0-2.287-.965-1.716-3.377L11.077 3.378C11.363 1.206 12.792 0 15.937 0z" fill="#233E81"/><path fill-rule="evenodd" clip-rule="evenodd" d="M22.509 42.466l4.288-22.68c.285-1.93 1.715-2.896 4.287-2.896h24.298c4.002 0 7.146.483 9.72 1.448-2.574 13.994-13.15 21.715-27.157 21.715H25.939c-1.43 0-2.573.724-3.43 2.413z" fill="#27326E"/></svg>
